X:1
T:U&I
T:U&I
T:K-On!! OST
T:Ho-Kago Tea Time
T:Hirasawa Yui
C:Ho-Kago Tea Time
Z:Hirasawa Yui
%%score { ( 1 3 ) | ( 2 4 ) }
L:1/8
Q:1/4=220
M:4/4
K:A
V:1 treble nm="Piano" snm="Pno."
V:3 treble 
V:2 bass 
V:4 bass 
V:1
 [FA]3 [EG]3 [FA]2 | [Gce]4 [B,EG]4 | [FA]3 [EG]3 [FA]2 | [A,DF]4 [B,EG]4 :| [EA]8- | [EA]8- | %6
 [EA]8 | [Aca]2 [Aca]2 [Aca]2 [Aca]2 |!mp! E2 E E3 F2 | E2 D2 C2 D2 | E3 E3 DD | C3 B,- B,4 | %12
 E2 E E3 FF | EEDD C2 D2 | x2!mf! [FA]2 [FA]4 | [GB]2 [GB]2 [GB] [GB]2 E- | E2 E4 F2 | E2 D2 CCDD | %18
 E2 E E3 DD | C2 B, [G,B,]4- [G,B,] | [A,EA]4 [CAc]4 | [B,FB]4 A3 [EA]- | [EA]7 z | z4 A,2 F2 | %24
!mp! [A,DF]6 F2 | F2 G2 F2 E2 | [G,CE]4 [E,A,C]4 | [G,CE]6 E2 | D2 C2 B,2 D2 | [G,C]4 [F,B,]4 | %30
!<(! [F,A,]4 [F,B,]4!<)! |!mf! [A,C]4 A,2 F2 | [A,DF]6 F2 | F2 G2 F2 E2 | [G,CE]4 [E,A,C]4 | %35
 [G,CE]6 C2 | D2 C2 D2 E2 | [A,DF]4 [DFA]4 | [DFA]6 B2 | [DGB]4 [Ee]2 [Aa]2 | [Aa]4 [Ee]2 [Aa]2 | %41
 [Aa]4 [Ee]2 [Aa]2 | [Bb]6 [Aa]2 | [Aa]4 [Ee]2 [Aa]2 | [Aa]4 [Ee]2 [Aa]2 | [Aa]4 [Ee]2 [Aa]2 | %46
 [Bb]6 [cc']2 | [cc']6 AA | [FA]2 [EG]2 [DF]2 [EA]2- | [EA]6 E2 | [FA]2 [EG]2 [DF]2 [EA]2- | %51
 [EA]6 E2 | ([FA]2 [EG]2 [DF]2 [CE]2 | [DF]2 [EG]2 [FA]2 [GB]2 | [EFA]6) G2 | [B,EG]4 [Ee]2 [Aa]2 | %56
 [Aa]4 [Ee]2 [Aa]2 | [Aa]4 [Ee]2 [Aa]2 | [Bb]6 [Aa]2 | [Aa]4 [Ee]2 [Aa]2 | [Aa]4 [Ee]2 [Aa]2 | %61
 [Aa]4 [Ee]2 [Aa]2 | [Bb]6 [cc']2 | [cc']6 AA | [FA]2 [EG]2 [DF]2 [EA]2- | [EA]6 E2 | %66
 [FA]2 [EG]2 [DF]2 [EA]2- | [EA]6 [Aa]2 | [FAa]4 [GBb]4 | [FAa]4 [EGg]4 | [Acea]8 | %71
 [CEA]2 [CEA]2 [CEA]2 [CEA]2 | F2 G2 A2 cB- | B2 A2 G2 F2 | E2 F2 G2 BA- | A2 G2 F2 E2 | %76
 D2 B,2 C2 D2 | E2 C2 D2 E2 | F2 D2 E2 F2 | G2 E2 F2 G2 | [Ff]2 [Gg]2 [Aa]2 [cc'][Bb]- | %81
 [Bb]2 [Aa]2 [Gg]2 [Ff]2 | [Ee]2 [Ff]2 [Gg]2 [Bb][Aa]- | [Aa]2 [Gg]2 [Ff]2 [Gg]2 | %84
 [Aa]2 [Ff]2 [Gg]2 [Aa]2 | [Bb]2 [Gg]2 [Aa]2 [Bb]2 | [=c=c']2 [Aa]2 [Bb]2 [cc']2 | %87
 [^e^e']3 [=c=c']3 [ee']2 | [ee']8- | [ee']8 | !arpeggio![egb]8- | [egb]4!p! e2 a2 | %92
 !arpeggio![cea]4 e2 a2 | [ea]4 e2 a2 | !arpeggio![egb]6 a2 | [ea]4 e2 a2 | %96
 !arpeggio![cfa]4 e2 a2 | [ea]4 e2 a2 | !arpeggio![dgb]6 c'2 | [egc']6!mp! aa | a2 g2 f2 [cea]2- | %101
 [cea]6 e2 | a2 g2 f2 [cea]2- | [cea]6 e2 | a2 g2 f2 e2 |!<(! [Ff]2 [Gg]2 [Aa]2 [Bb]2!<)! | %106
!mf! [cea]6 [Gg]2 | [Geg]4 [Ee]2 [Aa]2 | [Aa]4 [Ee]2 [Aa]2 | [Aa]4 [Ee]2 [Aa]2 | [Bb]6 [Aa]2 | %111
 [Aa]4 [Ee]2 [Aa]2 | [Aa]4 [Ee]2 [Aa]2 | [Aa]4 [Ee]2 [Aa]2 | [Bb]6 [cc']2 | [cgc']6 AA | %116
 [FA]2 [EG]2 [DF]2 [FA]2- | [FA]4 E2 [FA]2 | [EG]2 [DF]2 [FA]4- | [FA]2 A2 [EFA]4 | [EGB]4 [EFA]4 | %121
 [B,EG]4 [EFA]4- | [EFA]4 z4 | z4 A2 A2- | A2 G4 F2- | F8 | z4 G2 G[FA]- | [FA]8 | [Gce]4 [B,EG]4 | %129
 [FA]3 [EG]3 [FA]2 | [A,DF]4 [B,EG]4 | [FA]3 [EG]3 [FA]2 | [Gce]4 [B,EG]4 | [FA]3 [EG]3 [FA]2 | %134
 [A,DF]4 [B,EG]4 | [Ac]3 [GB]3 [Ac]2 | [DGB]4 [B,EG]4 | [Ac]3 [GB]3 [Ac]2 | [DFA]4 [EGB]4 | %139
 [Ac]3 [GB]3 [Ac]2 | [DGB]4 [B,EG]4 | [Ac]3 [GB]3 [Ac]2 | [DFA]4 [EGB]4 | x2 A2 c2 A2- | %144
 A2 A2 c2 Ac- | c c3 A2 c2 | A2 c2 [Aca]2 [Aca]2 | [Aca]2 [Aca]2 A2 c2 | A3 A2 c2 A | c2 c2 A2 c2 | %150
 A2 A2 [Aca]2 [Aca]2 | [Aca]2 [Aca]6 |] %152
V:2
 [A,,E,A,]8 | [E,G,B,]8 | [A,,C,F,]3 [A,,C,F,]4- [A,,C,F,] | [F,,A,,D,]8 :| %4
 [A,,A,]2 [A,,A,]2 [A,,A,]4 | [A,,A,]2 [A,,A,]2 [A,,A,] [C,C]2 [A,,A,]- | %6
 [A,,A,]2 [C,C]2 [A,,A,]2 [C,C]2 | [A,,E,A,]2 [A,,E,A,]2 [A,,E,A,]2 [A,,E,A,]2 | %8
 [A,,C,E,]4 [C,E,A,]4 | [A,,C,E,]4 [C,E,A,]4 | [B,,D,F,]4 [D,F,B,]4 | [E,G,B,]4 [E,G,]4 | %12
 [C,E,A,]3 [C,E,A,]4- [C,E,A,] | [C,E,A,]3 [C,E,A,]4- [C,E,A,] | [E,G,]8- | %15
 [E,G,B,]6 z [A,,C,E,]- | [A,,C,E,]2 [A,,C,E,]6 | [B,,D,F,]3 [B,,D,F,]4- [B,,D,F,] | %18
 [G,,B,,D,]3 [G,,B,,D,]4- [G,,B,,D,] | [G,,A,,C,]2 C,E, CCCC | [A,,C,E,]8 | [B,,D,F,]7 [A,,E,A,]- | %22
 [A,,E,A,]6 A,,C, | [C,E,A,]2 [A,,C,E,]2 [A,,C,E,]4 | [A,,D,F,]3 D,3 F,2 | [A,,D,F,]3 D,3 F,2 | %26
 [G,,C,E,]3 C,3 E,2 | [G,,C,E,]3 C,3 E,2 | [F,,B,,D,]3 B,,3 D,2 | [G,,C,D,]3 B,,3 C,2 | %30
 [A,,C,E,]2 [A,,C,E,]2 [B,,D,F,]2 [B,,D,F,]2 | [C,E,A,]2 A,,2 C,2 E,2 | F,2 D,2 A,,2 D,2 | %33
 G,2 E,2 B,,2 E,2 | E,2 C,2 G,,2 C,2 | E,2 C,2 G,,2 C,2 | D,2 B,,2 F,,2 B,,2 | F,2 D,2 A,,2 D,2 | %38
 [D,F,A,]2 [D,F,A,]2 [D,F,A,]2 [D,F,A,]2 | [D,G,B,]2 E,2 F,2 G,2 | %40
 [A,,E,A,]E,A,,E, [A,,E,A,]E,A,,E, | [A,,E,A,]E,A,,E, [A,,E,A,]E,A,,E, | %42
 [G,,E,G,]E,G,,E, [G,,E,G,]E,G,,E, | [G,,E,G,]E,B,,E, [G,,E,G,]E,B,,E, | %44
 [F,,C,F,]C,F,,C, [F,,C,F,]C,F,,C, | [F,,C,F,]C,F,,C, [F,,C,F,]C,F,,C, | %46
 [D,G,B,]G,D,G, [D,G,B,]G,D,G, | [E,A,C]A,E,A, [E,A,C]A,E,A, | [E,F,A,]F,E,F, F, z [D,F,A,]2- | %49
 [D,F,A,]2 A,,E, A,,E,A,,E, | [E,F,A,]F,E,F, F, z [D,F,A,]2- | [D,F,A,]2 A,,E, A,,E,A,,E, | %52
 ([F,A,]2 [E,G,]2 [D,F,]2 [C,E,]2 | [D,F,]2 [E,G,]2 [F,A,]2 [G,B,]2) | E,B,,E,B,, E,B,,E,B,, | %55
 PE,6 z2 | [A,,E,A,]E,A,,E, [A,,E,A,]E,A,,E, | [A,,E,A,]E,A,,E, [A,,E,A,]E,A,,E, | %58
 [B,,E,B,]E,B,,E, [B,,E,B,]E,B,,E, | [B,,E,B,]E,B,,E, [B,,E,B,]E,B,,E, | %60
 [C,F,A,]F,C,F, [C,F,A,]F,C,F, | [C,F,A,]F,C,F, [C,F,A,]F,C,F, | [D,G,B,]G,D,G, [D,G,B,]G,D,G, | %63
 [E,A,C]A,E,A, [E,A,C]A,E,A, | [E,F,A,]F,E,F, E,F, [D,F,A,]2- | [D,F,A,]2 A,,E, A,,E,A,,E, | %66
 [E,F,A,]F,E,F, E,F, [D,F,A,]2- | [D,F,A,]2 A,,E, A,,E,A,,E, | [A,,E,A,]8 | [B,,E,B,]8 | %70
 [A,,C,E,A,]8 | [A,,E,A,]2 [A,,E,A,]2 [A,,E,A,]2 [A,,E,A,]2 | [A,,E,A,]2 E,2 A,,2 E,2 | %73
 [B,,E,B,]2 E,2 B,,2 E,2 | [G,,E,G,]2 E,2 G,,2 E,2 | [A,,E,A,]2 E,2 A,,2 E,2 | %76
 [D,,A,,D,]2 A,,2 D,,2 A,,2 | [E,,A,,E,]2 A,,2 E,,2 A,,2 | [F,,B,,F,]2 B,,2 F,,2 B,,2 | %79
 [G,,B,,G,]2 B,,2 G,,2 B,,2 | A,,A,F,A, A,,A,F,A, | A,,A,F,A, A,,A,F,A, | C,G,E,G, C,G,E,G, | %83
 C,G,E,G, C,G,E,G, | B,,F,D,F, B,,F,D,F, | C,G,E,G, C,G,E,G, | D,A,F,A, D,A,F,A, | %87
 D,A,F,A, D,A,F,A, | [E,B,E]8- | [E,B,E]8 | z8 | z8 |[K:treble] A2 E2 C2 E2 | A2 E2 B2 E2 | %94
 B2 E2 C2 E2 | B2 E2 A2 E2 | A2 E2 C2 E2 | A2 E2 B2 E2 | B2 E2 C2 E2 | [Bg]4 [ca]4 | A2 G2 F2 E2 | %101
 D2 B,2 A2 E2 | A2 G2 F2 E2 | E2 C2 A,2 C2 | A2 G2 F2 E2 | %105
[K:bass3] [F,,D,F,]2 [G,,E,G,]2 [A,,F,A,]2 [B,,G,B,]2 | %106
 [A,,C,E,A,]2 [A,,A,][A,,A,] [A,,A,][A,,A,][A,,A,][A,,A,] | %107
 [G,,G,][G,,G,][G,,G,][G,,G,] [G,,G,][G,,G,][G,,G,][G,,G,] | [C,E,A,]E,C,E, [C,E,A,]E,C,E, | %109
 [C,E,A,]E,C,E, [C,E,A,]E,C,E, | [D,G,B,]G,D,G, [D,G,B,]G,D,G, | [C,E,A,]E,C,E, [C,E,A,]E,C,E, | %112
 [C,F,A,]F,C,F, [C,F,A,]F,C,F, | [C,F,A,]F,C,F, [C,F,A,]F,C,F, | [D,G,B,]G,D,G, [D,G,B,]G,D,G, | %115
 [E,A,C]A,E,A, [E,A,C]A,E,A, | [D,F,A,]F,D,F, D,F,[D,F,A,]F, | D,F,D,F, D,F,[C,F,A,]F, | %118
 C,F,C,F, [C,F,A,]F,C,F, | C,F,C,F, [D,F,A,]F,D,F, | [D,F,A,]F,D,F, [E,G,B,]G,E,G, | %121
 [E,G,B,]G,E,G, [E,A,C]A,E,A, | [E,A,C]A,E,A, A,2 A,2 | A,2 A,2 z2 [C,E,A,]2- | %124
 [C,E,A,]6 [A,,D,F,]2- | [A,,D,F,]8 | .[A,,E,A,]2 .[A,,E,A,]2 .[A,,E,A,]2 .[A,,E,A,]2 | %127
 [E,A,]2 A,,2 [E,A,]2 A,,2 | [G,B,]2 E,2 [G,B,]2 E,2 | [F,A,]2 C,2 [F,A,]2 C,2 | %130
 [D,F,]2 A,,2 [E,G,]2 B,,2 | [E,A,]2 A,,2 [E,A,]2 A,,2 | [G,B,]2 E,2 [G,B,]2 E,2 | %133
 [F,A,]2 C,2 [F,A,]2 C,2 | [D,F,]2 A,,2 [E,G,]2 B,,2 | [A,C]2 E,2 [A,C]2 E,2 | %136
 [G,B,]2 E,2 [G,B,]2 E,2 | [F,A,]2 C,2 [F,A,]2 C,2 | [F,A,]2 E,2 [G,B,]2 E,2 | %139
 [A,C]2 E,2 [A,C]2 E,2 | [G,B,]2 E,2 [G,B,]2 E,2 | [F,A,]2 C,2 [F,A,]2 C,2 | %142
 [F,A,]2 E,2 [G,B,]2 E,2 | z2 A,2 C2 A,2- | A,2 A,2 C2 A,C- | C C3 A,2 C2 | %146
 A,2 C2 [E,A,C]2 [E,A,C]2 | [E,A,C]2 [E,A,C]2 A,2 C2 | A,3 A,2 C2 A, | C2 C2 A,2 C2 | %150
 A,2 A,2 [E,A,C]2 [E,A,C]2 | [E,A,C]2 [E,A,C]6 |] %152
V:3
 x8 | x8 | x8 | x8 :| x8 | x8 | x8 | x8 | x8 | x8 | x8 | x8 | x8 | x8 | E8- | E8 | x8 | x8 | x8 | %19
 x8 | x8 | x8 | x8 | x8 | x8 | x8 | x8 | x8 | x8 | x8 | x8 | x8 | x8 | x8 | x8 | x8 | x8 | x8 | %38
 x8 | x8 | x8 | x8 | x8 | x8 | x8 | x8 | x8 | x8 | x8 | x8 | x8 | x8 | x8 | x8 | x8 | x8 | x8 | %57
 x8 | x8 | x8 | x8 | x8 | x8 | x8 | x8 | x8 | x8 | x8 | x8 | x8 | x8 | x8 | x8 | x8 | x8 | x8 | %76
 x8 | x8 | x8 | x8 | x8 | x8 | x8 | x8 | x8 | x8 | x8 | x8 | x8 | x8 | x8 | x8 | x8 | x8 | x8 | %95
 x8 | x8 | x8 | x8 | x8 | x8 | x8 | x8 | x8 | x8 | x8 | x8 | x8 | x8 | x8 | x8 | x8 | x8 | x8 | %114
 x8 | x8 | x8 | x8 | x8 | x8 | x8 | x8 | x8 | x8 | x8 | x8 | x8 | x3 [EG]3 [FA]2 | x8 | x8 | x8 | %131
 x8 | x8 | x8 | x8 | x8 | x8 | x8 | x8 | x8 | x8 | x8 | x8 | A8 | x8 | x8 | x8 | x8 | x8 | x8 | %150
 x8 | x8 |] %152
V:4
 x8 | x8 | x8 | x8 :| x8 | x8 | x8 | x8 | x8 | x8 | x8 | x8 | x8 | x8 | x8 | x8 | x8 | x8 | x8 | %19
 x8 | x8 | x8 | x8 | x8 | x8 | x8 | x8 | x8 | x8 | x8 | x8 | x8 | x8 | x8 | x8 | x8 | x8 | x8 | %38
 x8 | x8 | x8 | x8 | x8 | x8 | x8 | x8 | x8 | x8 | x8 | x8 | x8 | x8 | x8 | x8 | A,8 | x8 | x8 | %57
 x8 | x8 | x8 | x8 | x8 | x8 | x8 | x8 | x8 | x8 | x8 | x8 | x8 | x8 | x8 | x8 | x8 | x8 | x8 | %76
 x8 | x8 | x8 | x8 | x8 | x8 | x8 | x8 | x8 | x8 | x8 | x8 | x8 | x8 | x8 | x8 |[K:treble] x8 | %93
 x8 | x8 | x8 | x8 | x8 | x8 | x8 | x8 | x8 | x8 | x8 | x8 |[K:bass3] x8 | x8 | x8 | x8 | x8 | x8 | %111
 x8 | x8 | x8 | x8 | x8 | x8 | x8 | x8 | x8 | x8 | x8 | x8 | x8 | x8 | x8 | x8 | x8 | x8 | x8 | %130
 x8 | x8 | x8 | x8 | x8 | x8 | x8 | x8 | x8 | x8 | x8 | x8 | x8 | x8 | x8 | x8 | x8 | x8 | x8 | %149
 x8 | x8 | x8 |] %152

